react/src/assets/svg/banks/ttb.svg

<?xml version="1.0" encoding="UTF-8"?>
<svg width="128px" height="64px" viewBox="0 0 128 64" version="1.1" xmlns="http://www.w3.org/2000/svg" xmlns:xlink="http://www.w3.org/1999/xlink">
    <title>Group 4</title>
    <g id="Page-1" stroke="none" stroke-width="1" fill="none" fill-rule="evenodd">
        <g id="Group-4" transform="translate(-0.000000, -0.000000)">
            <path d="M38.4236149,38.1870759 C38.5097,45.368812 32.5321153,51.217139 25.5870482,51.0236425 C18.8999764,50.8517323 13.3741436,45.1321429 13.4386424,38.2301184 L13.4386424,25.3720955 L25.5870482,25.3720955 L25.5870482,12.5784413 L13.4386424,12.5784413 L13.4386424,0 L0,0 L0,38.1656196 C0,52.2922928 11.460375,63.7527978 25.5870482,63.7527978 C39.7137214,63.7527978 51.1526402,52.3138791 51.1742265,38.1870759 L38.4236149,38.1870759 Z" id="Fill-1" fill="#0050F0"></path>
            <path d="M76.8257735,38.1870759 C76.9117286,45.368812 70.9341439,51.217139 63.9892068,51.0236425 C57.3021351,50.8517323 51.7761722,45.1321429 51.840671,38.2301184 L51.840671,25.3720955 L63.9892068,25.3720955 L63.9892068,12.5784413 L51.840671,12.5784413 L51.840671,0 L38.4021586,0 L38.4021586,38.1656196 C38.4021586,52.2922928 49.8625336,63.7527978 63.9892068,63.7527978 C78.1158801,63.7527978 89.5547988,52.3138791 89.5762551,38.1870759 L76.8257735,38.1870759 Z" id="Fill-2" fill="#F58A1F"></path>
            <path d="M102.412952,51.0236295 C95.3174308,51.0236295 89.5762551,45.2827269 89.5762551,38.1870759 C89.5762551,31.0915548 95.3174308,25.3506392 102.412952,25.3506392 C109.508473,25.3506392 115.249518,31.0915548 115.249518,38.1870759 C115.249518,45.2827269 109.486886,51.0236295 102.412952,51.0236295 M102.412952,12.5784413 C98.0050552,12.5784413 93.8766102,13.6966377 90.2644159,15.6317325 L90.2644159,0 L76.8257735,0 L76.8257735,38.1656196 C76.8257735,52.2922798 88.2861485,63.7527848 102.412952,63.7527848 C116.539625,63.7527848 128,52.2922798 128,38.1656196 C128,24.0389464 116.539625,12.5784413 102.412952,12.5784413" id="Fill-3" fill="#002D63"></path>
        </g>
    </g>
</svg>

<?xml version="1.0" encoding="utf-8"?>
<!-- Generator: Adobe Illustrator 28.1.0, SVG Export Plug-In . SVG Version: 6.00 Build 0)  -->
<svg version="1.1" id="Layer_1" xmlns="http://www.w3.org/2000/svg" xmlns:xlink="http://www.w3.org/1999/xlink" x="0px" y="0px"
	 viewBox="0 0 128 64" style="enable-background:new 0 0 128 64;" xml:space="preserve">
<style type="text/css">
	.st0{fill-rule:evenodd;clip-rule:evenodd;fill:#FFFFFF;}
</style>
<g id="Page-1">
	<g id="Group-4" transform="translate(-0.000000, -0.000000)">
		<path id="Fill-1" class="st0" d="M38.4,38.2c0.1,7.2-5.9,13-12.8,12.8c-6.7-0.2-12.2-5.9-12.1-12.8V25.4h12.1V12.6H13.4V0H0v38.2
			c0,14.1,11.5,25.6,25.6,25.6s25.6-11.4,25.6-25.6H38.4z"/>
		<path id="Fill-2" class="st0" d="M76.8,38.2c0.1,7.2-5.9,13-12.8,12.8c-6.7-0.2-12.2-5.9-12.1-12.8V25.4H64V12.6H51.8V0H38.4v38.2
			c0,14.1,11.5,25.6,25.6,25.6s25.6-11.4,25.6-25.6H76.8z"/>
		<path id="Fill-3" class="st0" d="M102.4,51c-7.1,0-12.8-5.7-12.8-12.8c0-7.1,5.7-12.8,12.8-12.8c7.1,0,12.8,5.7,12.8,12.8
			C115.2,45.3,109.5,51,102.4,51 M102.4,12.6c-4.4,0-8.5,1.1-12.1,3.1V0H76.8v38.2c0,14.1,11.5,25.6,25.6,25.6
			c14.1,0,25.6-11.5,25.6-25.6S116.5,12.6,102.4,12.6"/>
	</g>
</g>
</svg>
